src/lib/runemarks/svg/factions-chaos-bladeborn-magores-fiends.svg

<svg xmlns="http://www.w3.org/2000/svg" xml:space="preserve" fill-rule="evenodd" stroke-linejoin="round" stroke-miterlimit="2" clip-rule="evenodd" viewBox="0 0 300 300"><path fill-rule="nonzero" d="M184.174 204.397c0-13.172.627-26.345-.389-39.431 0-4.975-4.888-9.626-7.506-14.448-3.396 4.52-9.236 8.673-9.711 13.411-2.293 23.251-3.007 46.764-4.52 70.102q-.068.885-.064 1.773c0 6.207 2.445 11.81 6.402 15.984 7.874 9.084 7.095 13.237.844 22.409s-10.015 16.634-15.79 24.765c-.995.627-2.184 1.038-3.483 1.038a6.9 6.9 0 0 1-2.249-.389l.043.021c-7.181-12.22-14.211-24.527-20.764-37.159-.714-1.341 1.168-4.65 2.596-6.468 4.478-6.186 7.181-13.908 7.181-22.279q0-1.876-.195-3.742l.022.151c0-15.054.476-30.217 0-45.271-.649-10.468-2.358-20.245-4.975-29.632l.238.995a10.83 10.83 0 0 0-8.716-5.688h-.043c-3.655 1.017-6.532 3.634-7.874 7.03l-.022.087a43.4 43.4 0 0 0-.606 13.929l-.022-.195v68.846a20.4 20.4 0 0 1-1.731 5.645l.043-.13c-2.207-.93-5.212-1.341-6.489-3.006-7.267-9.626-13.734-17.585-10.339-32.813 4.261-19.402 1.168-40.47 1.125-60.8.022-.238.022-.519.022-.8 0-2.445-.821-4.672-2.184-6.489l.022.022a63 63 0 0 0-10.361-6.445l-.368-.173c-1.752 3.309-4.737 6.532-4.823 9.928-.541 15.054 0 30.217 0 45.271v15.768c0 5.278-2.509 5.602-6.315 2.855-1.016-.8-1.882-1.816-2.92-2.682-7.029-5.754-16.828-10.253-20.224-17.736s.627-17.195.389-26.02c-.476-14.254-1.968-28.552-2.358-42.826a8.77 8.77 0 0 1 4.434-6.598l.043-.022c4.629-1.709 10.296-3.287 16.136-4.434l.778-.13c9.647-2.66 17.606-8.76 22.56-16.871l.108-.173c2.379-3.698 1.514-8.543-3.936-8.457-11.463 0-23.685-3.85-33.872 5.278-3.872 3.483-7.268.541-7.895-4.327v-9.862c0-6.315-3.482-15.054-.476-18.384 5.992-6.879 10.814 3.071 16.568 4.975 20.051 6.381 47.391-.952 57.232-15.79 5.061-7.181 4.65-11.982-2.682-15.768-5.32-2.834-11.55-4.78-18.169-5.515l-.238-.021c-4.11-.259-8.933-.389-13.778-.389s-9.668.151-14.427.432l.649-.021a19 19 0 0 0-3.439-.304c-5.537 0-10.555 2.271-14.168 5.883-4.261 4.737-9.949 1.58-10.729-4.975-.173-2.077-.259-4.455-.259-6.9s.108-4.845.281-7.202l-.022.302c0-9.084 0-8.76 10.015-5.841 3.806.995 8.154 1.601 12.675 1.601h38.263c3.936 0 9.3 1.016 11.442-1.038 10.253-9.777 16.568-3.785 24.247 3.634 10.512 10.187 11.68 10.102 21.716-.541 7.116-7.873 13.432-11.442 23.685-5.061 3.439 1.86 7.506 2.964 11.852 2.964.454 0 .887-.022 1.32-.043h-.064c17.693 0 35.365 0 53.057-1.125 4.261 0 6.077 0 6.402 4.261.087 1.168.13 2.552.13 3.936a65 65 0 0 1-.13 4.131v-.195c0 5.148-1.038 10.253-1.579 15.379-3.829-2.077-8.284-4.002-12.934-5.515l-.562-.173c-19.813-4.954-39.473-6.921-59.048 2.207-7.895 3.634-8.371 9.084-3.332 15.768 6.445 10.079 17.585 16.655 30.238 16.655.454 0 .952 0 1.406-.022h-.064c12.934-.627 26.215 1.731 38.046-6.294 2.855-1.882 6.315-1.816 5.537 3.698-.714 4.521-1.255 9.971-1.493 15.486v.281c-.541 13.734 0 13.021-14.276 9.863-4.823-.974-10.382-1.536-16.092-1.536-3.287 0-6.489.195-9.647.541l.389-.043c-7.202.541-7.895 6.468-3.396 12.545 7.419 9.473 18.299 12.22 28.724 15.79 13.324 4.499 12.005 4.11 11.269 16.958-.238 4.261-.368 9.236-.368 14.254 0 12.113.8 24.03 2.358 35.732l-.151-1.384c1.255 9.3.389 14.989-8.457 18.775-3.547 2.12-6.64 4.325-9.473 6.77l.087-.087c-3.936 2.682-7.895 5.213-12.09 7.874-1.017-4.499-1.665-9.734-1.816-15.097v-.108c.8-12.199 2.855-24.442 3.482-36.749v-.021c0-5.386-1.146-10.491-3.244-15.097l.064.238a38.8 38.8 0 0 0-7.008-8.825l-.021-.022c-4.023 3.071-7.57 6.402-10.75 10.079l-.087.087c-1.665 2.271-.8 6.294-.8 9.625 0 15.768-.476 31.557 0 47.325.195 5.992 1.816 11.572 4.586 16.417l-.087-.151a8.63 8.63 0 0 1 2.077 5.645c0 2.596-1.125 4.931-2.941 6.489-6.164 6.468-12.09 13.086-18.169 19.705-1.038-9.3-2.293-18.537-3.006-27.859-.389-5.839 0-11.745 0-17.65l-.562-.368z"/></svg>

<?xml version="1.0" encoding="UTF-8" standalone="no"?>
<!DOCTYPE svg PUBLIC "-//W3C//DTD SVG 1.1//EN" "http://www.w3.org/Graphics/SVG/1.1/DTD/svg11.dtd">
<svg width="100%" height="100%" viewBox="0 0 300 300" version="1.1" xmlns="http://www.w3.org/2000/svg" xmlns:xlink="http://www.w3.org/1999/xlink" xml:space="preserve" xmlns:serif="http://www.serif.com/" style="fill-rule:evenodd;clip-rule:evenodd;stroke-linejoin:round;stroke-miterlimit:2;">
    <path d="M184.174,204.397C184.174,191.225 184.801,178.052 183.785,164.966C183.785,159.991 178.897,155.34 176.279,150.518C172.883,155.038 167.043,159.191 166.568,163.929C164.275,187.18 163.561,210.693 162.048,234.031C162.003,234.621 161.981,235.212 161.984,235.804C161.984,242.011 164.429,247.614 168.386,251.788C176.26,260.872 175.481,265.025 169.23,274.197C162.979,283.369 159.215,290.831 153.44,298.962C152.445,299.589 151.256,300 149.957,300C149.191,299.996 148.431,299.865 147.708,299.611L147.751,299.632C140.57,287.412 133.54,275.105 126.987,262.473C126.273,261.132 128.155,257.823 129.583,256.005C134.061,249.819 136.764,242.097 136.764,233.726C136.764,232.476 136.699,231.227 136.569,229.984L136.591,230.135C136.591,215.081 137.067,199.918 136.591,184.864C135.942,174.396 134.233,164.619 131.616,155.232L131.854,156.227C130.113,152.97 126.82,150.821 123.138,150.539L123.095,150.539C119.44,151.556 116.563,154.173 115.221,157.569L115.199,157.656C114.248,162.236 114.043,166.94 114.593,171.585L114.571,171.39L114.571,240.236C114.271,242.192 113.688,244.093 112.84,245.881L112.883,245.751C110.676,244.821 107.671,244.41 106.394,242.745C99.127,233.119 92.66,225.16 96.055,209.932C100.316,190.53 97.223,169.462 97.18,149.132C97.202,148.894 97.202,148.613 97.202,148.332C97.202,145.887 96.381,143.66 95.018,141.843L95.04,141.865C91.803,139.386 88.333,137.228 84.679,135.42L84.311,135.247C82.559,138.556 79.574,141.779 79.488,145.175C78.947,160.229 79.488,175.392 79.488,190.446L79.488,206.214C79.488,211.492 76.979,211.816 73.173,209.069C72.157,208.269 71.291,207.253 70.253,206.387C63.224,200.633 53.425,196.134 50.029,188.651C46.633,181.168 50.656,171.456 50.418,162.631C49.942,148.377 48.45,134.079 48.06,119.805C48.397,117.025 50.048,114.569 52.494,113.207L52.537,113.185C57.166,111.476 62.833,109.898 68.673,108.751L69.451,108.621C79.098,105.961 87.057,99.861 92.011,91.75L92.119,91.577C94.498,87.879 93.633,83.034 88.183,83.12C76.72,83.12 64.498,79.27 54.311,88.398C50.439,91.881 47.043,88.939 46.416,84.071L46.416,74.209C46.416,67.894 42.934,59.155 45.94,55.825C51.932,48.946 56.754,58.896 62.508,60.8C82.559,67.181 109.899,59.848 119.74,45.01C124.801,37.829 124.39,33.028 117.058,29.242C111.738,26.408 105.508,24.462 98.889,23.727L98.651,23.706C94.541,23.447 89.718,23.317 84.873,23.317C80.028,23.317 75.205,23.468 70.446,23.749L71.095,23.728C69.96,23.523 68.809,23.421 67.656,23.424C62.119,23.424 57.101,25.695 53.488,29.307C49.227,34.044 43.539,30.887 42.759,24.332C42.586,22.255 42.5,19.877 42.5,17.432C42.5,14.987 42.608,12.587 42.781,10.23L42.759,10.532C42.759,1.448 42.759,1.772 52.774,4.691C56.58,5.686 60.928,6.292 65.449,6.292L103.712,6.292C107.648,6.292 113.012,7.308 115.154,5.254C125.407,-4.523 131.722,1.469 139.401,8.888C149.913,19.075 151.081,18.99 161.117,8.347C168.233,0.474 174.549,-3.095 184.802,3.286C188.241,5.146 192.308,6.25 196.654,6.25C197.108,6.25 197.541,6.228 197.974,6.207L197.91,6.207C215.603,6.207 233.275,6.207 250.967,5.082C255.228,5.082 257.044,5.082 257.369,9.343C257.456,10.511 257.499,11.895 257.499,13.279C257.499,14.663 257.456,16.048 257.369,17.41L257.369,17.215C257.369,22.363 256.331,27.468 255.79,32.594C251.961,30.517 247.506,28.592 242.856,27.079L242.294,26.906C222.481,21.952 202.821,19.985 183.246,29.113C175.351,32.747 174.875,38.197 179.914,44.881C186.359,54.96 197.499,61.536 210.152,61.536C210.606,61.536 211.104,61.536 211.558,61.514L211.494,61.514C224.428,60.887 237.709,63.245 249.54,55.22C252.395,53.338 255.855,53.404 255.077,58.918C254.363,63.439 253.822,68.889 253.584,74.404L253.584,74.685C253.043,88.419 253.584,87.706 239.308,84.548C234.485,83.574 228.926,83.012 223.216,83.012C219.929,83.012 216.727,83.207 213.569,83.553L213.958,83.51C206.756,84.051 206.063,89.978 210.562,96.055C217.981,105.528 228.861,108.275 239.286,111.845C252.61,116.344 251.291,115.955 250.555,128.803C250.317,133.064 250.187,138.039 250.187,143.057C250.187,155.17 250.987,167.087 252.545,178.789L252.394,177.405C253.649,186.705 252.783,192.394 243.937,196.18C240.39,198.3 237.297,200.505 234.464,202.95L234.551,202.863C230.615,205.545 226.656,208.076 222.461,210.737C221.444,206.238 220.796,201.003 220.645,195.64L220.645,195.532C221.445,183.333 223.5,171.09 224.127,158.783L224.127,158.762C224.127,153.376 222.981,148.271 220.883,143.665L220.947,143.903C219.053,140.636 216.692,137.663 213.939,135.078L213.918,135.056C209.895,138.127 206.348,141.458 203.168,145.135L203.081,145.222C201.416,147.493 202.281,151.516 202.281,154.847C202.281,170.615 201.805,186.404 202.281,202.172C202.476,208.164 204.097,213.744 206.867,218.589L206.78,218.438C208.127,220.009 208.864,222.014 208.857,224.083C208.857,226.679 207.732,229.014 205.916,230.572C199.752,237.04 193.826,243.658 187.747,250.277C186.709,240.977 185.454,231.74 184.741,222.418C184.352,216.579 184.741,210.673 184.741,204.768L184.179,204.4L184.174,204.397Z" style="fill-rule:nonzero;"/>
</svg>
